www/assets/images/test_icons/flags/VA.svg

<svg fill="none" height="15" viewBox="0 0 16 15" width="16" xmlns="http://www.w3.org/2000/svg" xmlns:xlink="http://www.w3.org/1999/xlink"><clipPath id="a"><path d="m0 0h16v15h-16z"/></clipPath><mask id="b" height="15" maskUnits="userSpaceOnUse" width="21" x="0" y="0"><path d="m19 0h-17c-1.10457 0-2 .89543-2 2v11c0 1.1046.89543 2 2 2h17c1.1046 0 2-.8954 2-2v-11c0-1.10457-.8954-2-2-2z" fill="#fff"/></mask><g clip-path="url(#a)"><g mask="url(#b)"><path clip-rule="evenodd" d="m0 0h8v15h-8z" fill="#ffe200" fill-rule="evenodd"/><path clip-rule="evenodd" d="m8 0h6c1.1046 0 2 .895431 2 2v11c0 1.1046-.8954 2-2 2h-6z" fill="#fff" fill-rule="evenodd"/><path d="m10 6 3 3" stroke="#ccc"/><path d="m11.5 7.5v2.5" stroke="#ed9069"/><path clip-rule="evenodd" d="m10 6h3l-1.5-2z" fill="#cf9e00" fill-rule="evenodd"/><path d="m13 6-3 3" stroke="#cf9e00"/><path d="m14 .5h-12c-.82843 0-1.5.67157-1.5 1.5v11c0 .8284.67157 1.5 1.5 1.5h12c.8284 0 1.5-.6716 1.5-1.5v-11c0-.82843-.6716-1.5-1.5-1.5z" stroke="#000" stroke-opacity=".1"/></g></g></svg>

<svg width="16" height="15" viewBox="0 0 16 15" fill="none" xmlns="http://www.w3.org/2000/svg">
<g clip-path="url(#clip0_3_4)">
<mask id="mask0_3_4" style="mask-type:alpha" maskUnits="userSpaceOnUse" x="0" y="0" width="21" height="15">
<path d="M19 0H2C0.89543 0 0 0.89543 0 2V13C0 14.1046 0.89543 15 2 15H19C20.1046 15 21 14.1046 21 13V2C21 0.89543 20.1046 0 19 0Z" fill="white"/>
</mask>
<g mask="url(#mask0_3_4)">
<path fill-rule="evenodd" clip-rule="evenodd" d="M0 0H8V15H0V0Z" fill="#FFE200"/>
<path fill-rule="evenodd" clip-rule="evenodd" d="M8 0H14C15.1046 0 16 0.895431 16 2V13C16 14.1046 15.1046 15 14 15H8V0Z" fill="white"/>
<path d="M10 6L13 9" stroke="#CCCCCC"/>
<path d="M11.5 7.5V10" stroke="#ED9069"/>
<path fill-rule="evenodd" clip-rule="evenodd" d="M10 6H13L11.5 4L10 6Z" fill="#CF9E00"/>
<path d="M13 6L10 9" stroke="#CF9E00"/>
<path d="M14 0.5H2C1.17157 0.5 0.5 1.17157 0.5 2V13C0.5 13.8284 1.17157 14.5 2 14.5H14C14.8284 14.5 15.5 13.8284 15.5 13V2C15.5 1.17157 14.8284 0.5 14 0.5Z" stroke="black" stroke-opacity="0.1"/>
</g>
</g>
<defs>
<clipPath id="clip0_3_4">
<rect width="16" height="15" fill="white"/>
</clipPath>
</defs>
</svg>
